svgs/sharp-light/booth-curtain.svg

<svg xmlns="http://www.w3.org/2000/svg" viewBox="0 0 512 512"><!--! Font Awesome Pro 6.6.0 by @fontawesome - https://fontawesome.com License - https://fontawesome.com/license (Commercial License) Copyright 2024 Fonticons, Inc. --><path d="M0 0L0 16 0 496l0 16 32 0 0-16L32 32l32 0L64 0 16 0 0 0zM288 32l0 352c0 17.7-14.3 32-32 32s-32-14.3-32-32l0-352 64 0zM256 448c19.1 0 36.3-8.4 48-21.7c11.7 13.3 28.9 21.7 48 21.7s36.3-8.4 48-21.7c11.7 13.3 28.9 21.7 48 21.7c11.7 0 22.6-3.1 32-8.6l0 56.6 0 16 32 0 0-16 0-112 0-336 0-32 0-16L496 0 96 0l0 16 0 16 0 352c0 35.3 28.7 64 64 64c19.1 0 36.3-8.4 48-21.7c11.7 13.3 28.9 21.7 48 21.7zM480 48l0 336c0 17.7-14.3 32-32 32s-32-14.3-32-32l0-352 64 0 0 16zM384 32l0 352c0 17.7-14.3 32-32 32s-32-14.3-32-32l0-352 64 0zM192 384c0 17.7-14.3 32-32 32s-32-14.3-32-32l0-352 64 0 0 352z"/></svg>

<svg xmlns="http://www.w3.org/2000/svg" viewBox="0 0 512 512"><!--! Font Awesome Pro 6.4.2 by @fontawesome - https://fontawesome.com License - https://fontawesome.com/license (Commercial License) Copyright 2023 Fonticons, Inc. --><path d="M0 0V16 496v16H32V496 32H64V0H16 0zM288 32V384c0 17.7-14.3 32-32 32s-32-14.3-32-32V32h64zM256 448c19.1 0 36.3-8.4 48-21.7c11.7 13.3 28.9 21.7 48 21.7s36.3-8.4 48-21.7c11.7 13.3 28.9 21.7 48 21.7c11.7 0 22.6-3.1 32-8.6V496v16h32V496 384 48 16 0H496 96V16 32 384c0 35.3 28.7 64 64 64c19.1 0 36.3-8.4 48-21.7c11.7 13.3 28.9 21.7 48 21.7zM480 48V384c0 17.7-14.3 32-32 32s-32-14.3-32-32V32h64V48zM384 32V384c0 17.7-14.3 32-32 32s-32-14.3-32-32V32h64zM192 384c0 17.7-14.3 32-32 32s-32-14.3-32-32V32h64V384z"/></svg>
